!!!COM: Chopin, Frederic
!!!CDT: 1810///-1849///
!!!OTL: Etude in F Minor, Op. 10, No. 9
!!!OPS: Op. 10
!!!ONM: No. 9
!!!OMD: Allegro, molto agitato
!!!ODT: 1830/11//
!!!PPP: Leipzig, Paris and London
!!!ODE: Franz Liszt
**kern	**kern	**dynam
*staff2	*staff1	*staff1/2
*Ipiano	*Ipiano	*Ipiano
*clefF4	*clefG2	*clefG2
*k[b-e-a-d-]	*k[b-e-a-d-]	*k[b-e-a-d-]
*M6/8	*M6/8	*M6/8
*MM120	*MM120	*MM120
=1-	=1-	=1-
(16FF\LL	8r	.
16C\	.	.
16A-\	(8f'/L	p
16C\	.	.
16B-\	8g'/J)	.
16C\JJ)	.	.
(16FF\LL	8r	.
16C\	.	.
16c\	(8a-'/L	.
16C\	.	.
16d-\	8b-/J)	.
16C\JJ)	.	.
=2	=2	=2
(16FF\LL	8r	.
16C\	.	.
16c\	(8cc'\L	.
16C\	.	.
16B-\	8dd-'\J	.
16C\JJ)	.	.
(16FF\LL	8cc'\L	<
16C\	.	.
16A-\	8aa-'\	.
16C\	.	.
16B-\	8gg'\J	.
16C\JJ)	.	.
=3	=3	=3
(16FF\LL	8ff'\L	.
16C\	.	.
16A-\	8cc'\	.
16C\	.	.
16B-\	8dd-'\J	.
16C\JJ)	.	.
(16FF\LL	8cc'/L	.
16C\	.	.
16A-\	8a-'/	.
16C\	.	.
16c\	8f'/J	.
16C\JJ)	.	.
=4	=4	=4
16FF\LL	2.c/)	.
(16C\	.	.
16G\	.	.
16C\	.	.
16A-\	.	.
16C\JJ)	.	.
(16FF\LL	.	.
16C\	.	.
16B-\	.	.
16C\	.	.
16G\	.	.
16C\JJ)	.	.
=5	=5	=5
(16FF\LL	8r	.
16C\	.	.
16A-\	(8f'/L	.
16C\	.	.
16B-\	8g'/J)	.
16C\JJ)	.	.
(16FF\LL	8r	.
16C\	.	.
16c\	(8a-'/L	.
16C\	.	.
16d-\	8b-'/J)	.
16C\JJ)	.	.
=6	=6	=6
(16FF\LL	8r	.
16C\	.	.
16c\	(8cc'\L	<
16C\	.	.
16B-\	8dd-'\J	.
16C\JJ)	.	.
(16FF\LL	8cc'\L	.
16C\	.	.
16A-\	8ccc'\	.
16C\	.	.
16c\	8aa-'\J	.
16C\JJ)	.	.
=7	=7	=7
(16FF\LL	8gg'\L	.
16C\	.	.
16B-\	8cc'\	.
16C\	.	.
16G\	8dd-'\J	.
16C\JJ)	.	.
(16FF\LL	8cc'/L	.
16C\	.	.
16B-\	8g'/	<
16C\	.	.
16G\	8c'/J	.
16C\JJ)	.	.
=8	=8	=8
(16FF\LL	16f/LL	.
16BBn\	16g/JJ	.
16A-\	2a-^/)	.
16BB\	.	.
16d-\	.	.
16BB\JJ)	.	.
(16FF\LL	.	.
16BB\	.	.
16A-\	.	.
16BB\	.	.
16d-\	8r	.
16BB\JJ)	.	.
=9	=9	=9
(16FF\LL	8r	.
16C\	.	.
16A-\	(8f'/L	.
16C\	.	.
16B-\	8g'/J)	.
16C\JJ)	.	.
(16FF\LL	8r	.
16C\	.	.
16c\	(8a-'/L	.
16C\	.	.
16d-\	8b-'/J)	.
16C\JJ)	.	.
=10	=10	=10
16FF\LL	8r	.
16C\	.	.
16c\	8cc'\L	<
16C\	.	.
16B-\	8dd-'\J	.
16C\JJ	.	.
16FF\LL	8cc'\L	.
16C\	.	.
16A-\	8aa-'\	.
16C\	.	.
16B-\	8gg'\J	.
16C\JJ	.	.
=11	=11	=11
16FF\LL	8ff'\L	.
16C\	.	.
16A-\	8cc'\	.
16C\	.	.
16B-\	8dd-'\J	.
16C\JJ	.	.
16FF\LL	8cc'/L	.
16C\	.	.
16A-\	8a-'/	.
16C\	.	.
16c\	8f'/J	.
16C\JJ	.	.
=12	=12	=12
16FF\LL	2.c/	.
16C\	.	.
16G\	.	.
16C\	.	.
16A-\	.	.
16C\JJ	.	.
16FF\LL	.	.
16C\	.	.
16B-\	.	.
16C\	.	.
16G\	.	.
16C\JJ	.	.
=13	=13	=13
16FF\LL	8r	.
16C\	.	.
16A-\	(8f'/L	.
16C\	.	.
16B-\	8g'/J)	.
16C\JJ	.	.
16FF\LL	8r	.
16C\	.	.
16c\	(8a-'/L	.
16C\	.	.
16d-\	8b-'/J)	.
16C\JJ	.	.
=14	=14	=14
16FF\LL	8r	.
16C\	.	.
16c\	(8cc'\L	<
16C\	.	.
16B-\	8dd-'\J	.
16C\JJ	.	.
16FF\LL	8cc'\L	.
16C\	.	.
16A-\	8ccc'\	.
16C\	.	.
16c\	8aa-'\J	.
16C\JJ	.	.
=15	=15	=15
16FF\LL	8gg'\L	.
16C\	.	.
16B-\	8cc'\	.
16C\	.	.
16G\	8dd-'\J	.
16C\JJ	.	.
16FF\LL	8cc'/L	.
16C\	.	.
16B-\	8g'/	.
16C\	.	.
16G\	8c'/J	.
16C\JJ	.	.
=16	=16	=16
16FF\LL	2.f/)	.
16C\	.	.
16A-\	.	.
16C\	.	.
16c\	.	.
16C\JJ	.	.
16FF\LL	.	.
16C\	.	.
16A-\	.	.
16C\	.	.
16c\	.	.
16C\JJ	.	.
=17	=17	=17
16FF\LL	4.a-/	p
16Dn\	.	.
16A-\	.	.
16D\	.	.
16B-\	.	.
16D\JJ	.	.
.	b-8q/	.
16FF\LL	8a-/L	.
16BB-\	.	.
16A-\	8.g/	.
16BB-\	.	.
16B-\	.	.
16BB-\JJ	16a-/Jk	.
=18	=18	=18
16EE-\LL	4.b-\	.
16BB-\	.	.
16G-\	.	.
16BB-\	.	.
16B-\	.	.
16BB-\JJ	.	.
16EE-\LL	4.cc\	.
16AA-\	.	.
16G-\	.	.
16AA-\	.	.
16A-\	.	.
16AA-\JJ	.	.
=19	=19	=19
16DD-\LL	8dd-'\L	f
16AA-\	.	.
16F\	8a-'\	.
16AA-\	.	.
16A-\	8b-'\J	.
16AA-\JJ	.	.
16DD-\LL	8a-'/L	.
16AA-\	.	.
16F\	8f'/	.
16AA-\	.	.
16A-\	8d-'/J	.
16AA-\JJ	.	.
=20	=20	=20
16CC/LL	4A-^/	.
16AA-/	.	.
16E-/	.	.
16AA-/	.	.
16A-/	8r	.
16AA-/JJ	.	.
16CC/LL	4r	.
16AA-/	.	.
16E-/	.	.
16AA-/	.	.
16A-/	(8e-/	p
16AA-/JJ	.	.
=21	=21	=21
(16CC-/LL	4.ee-\	.
16GG-/	.	.
16E-/	.	.
16GG-/	.	.
16G-/	.	.
16GG-/JJ)	.	.
.	ee-q16/LL	.
.	ffq16/JJ	.
(16CC-/LL	8ee-\L	.
16GG-/	.	.
16E-/	8ddn\	.
16GG-/	.	.
16G-/	8ee-\J	.
16GG-/JJ)	.	.
=22	=22	=22
(16CC-/LL	4.ff\)	.
16AA-/	.	.
16D-/	.	.
16AA-/	.	.
16A-/	.	.
16AA-/JJ)	.	.
(16BBB-/LL	[4.gg-^\	.
16GG-/	.	.
16D-/	.	.
16GG-/	.	.
16G-/	.	.
16GG-/JJ)	.	.
=23	=23	=23
(16BBB-/LL	8gg-\L]	.
16GG-/	.	.
16D-/	8dd-'\	.
16GG-/	.	.
16G-/	8ee-'\J	.
16GG-/JJ)	.	.
(16BBB-/LL	8dd-'\L	.
16GG-/	.	.
16D-/	8b-'\	.
16GG-/	.	.
16G-/	8g-'\J	.
16GG-/JJ)	.	.
=24	=24	=24
(16AAA-/LL	8d-'/	.
16FF/	.	.
16D-/	(8dd-'\L	.
16FF/	.	.
16F/	8ee-'\J	.
16FF/JJ)	.	.
(16AAA-/LL	8dd-'/L	.
16FF-/	.	.
16D-/	8a-'/	.
16FF-/	.	.
16F-/	8f-'/J	.
16FF-/JJ)	.	.
=25	=25	=25
(16AAA--/LL	8d-'/)	f
16FF-/	.	.
16D-/	(8d-'/ 8dd-'/L	.
16FF-/	.	.
16F-/	8e-'/) 8ee-'/J	.
16FF-/JJ)	.	.
(16BBB-/LL	8r	.
16AA--/	.	.
16F-/	8f-'\ (8ff-'\L	.
16AA--/	.	.
16A--/	8g-'\ 8gg-'\J)	.
16AA--/JJ)	.	.
=26	=26	=26
(16BBBn/LL	8r	.
16GGn/	.	.
16En/	8gn'\ (8ggn'\L	.
16GG/	.	.
16Gn/	8an'\ 8aan'\J)	.
16GG/JJ)	.	.
(16CC/LL	8r	.
16GG/	.	.
16E/	8b-'\ (8bb-'\L	.
16GG/	.	.
16G/	8cc'\ 8ccc'\J)	.
16GG/JJ)	.	.
=27	=27	=27
(16FF-\LL	8d-\ (8dd-\L	<
16D-\	.	.
16B-\	8e-\ 8ee-\)	.
16D-\)	.	.
(16GGn\	8f-\ (8ff-\J	.
16F-\JJ	.	.
16d-\LL	8g-\ 8gg-\L)	.
16F-\)	.	.
(16BB-\	8gn\ (8ggn\	.
16Gn\	.	.
16f-\	8an\ 8aan\J)	.
16G\JJ)	.	.
=28	=28	=28
(16D-\LL	16b-\ (16bb-\LL	ff
16B-\	16cc\ 16ccc\JJ	.
16gn\	4dd-\ 4ddd-\)	.
(16B-\)	.	.
16En\	.	.
16d-\JJ	.	.
*clefG2	*	*
16b-/LL	4r	.
16d-/	.	.
16b-/	.	.
16d-/	.	.
16b-/	8r	.
16d-/JJ)	.	.
*clefF4	*	*
=29	=29	=29
(16C\LL	8dd-'\ (8ddd-'\L	f
16A-\	.	.
16f\	8dd-'\ 8ddd-'\	.
16A-\	.	.
16a-\	8dd-'\ 8ddd-'\J)	.
16A-\JJ)	.	.
(16C\LL	4dd-\ (4ddd-\	>
16G\	.	.
16en\	.	.
16G\	.	.
16g\	8cc\ 8ccc\)	.
16G\JJ)	.	.
=30	=30	=30
16C\LL	(8dd-'\L	pp
16A-\	.	.
16f\	8dd-'\	.
16A-\	.	.
16a-\	8dd-'\J)	.
16A-\JJ	.	.
16C\LL	(4dd-^\	.
16G\	.	.
16en\	.	.
16G\	.	.
16g\	8cc\)	.
16G\JJ	.	.
=31	=31	=31
16C\LL	8b-'\ (8bb-'\L	f
16F\	.	.
16d-\	8a-'\ 8aa-'\	.
16F\	.	.
16f\	8b-'\ 8bb-'\J	.
16F\JJ	.	.
16C\LL	4.cc\ 4.ccc\)	.
16G\	.	.
16en\	.	.
16G\	.	.
16g\	.	.
16G\JJ	.	.
=32	=32	=32
16C\LL	8b-\L	pp
16F\	.	.
16d-\	8a-\	.
16F\	.	.
16f\	8b-\J	.
16F\JJ	.	.
16C\LL	4.cc\	.
16G\	.	.
16en\	.	.
16G\	.	.
16g\	.	.
16G\JJ	.	.
=33	=33	=33
16C\LL	20.dd-'\ (20.ddd-'\L	f
16A-\	.	.
.	20.dd-'\ 20.ddd-'\	.
16f\	.	.
.	20.dd-'\ 20.ddd-'\	.
16A-\	.	.
.	20.dd-'\ 20.ddd-'\	.
16a-\	.	.
.	20.dd-'\ (20.ddd-'\J)	.
16A-\JJ	.	.
16C\LL	4dd-^\ 4ddd-^\	.
16G\	.	.
16en\	.	.
16G\	.	.
16g\	8cc\ 8ccc\)	.
16G\JJ	.	.
=34	=34	=34
16C\LL	(20.ddd-'\L	pp
16A-\	.	.
.	20.ddd-'\	.
16f\	.	.
.	20.ddd-'\	.
16A-\	.	.
.	20.ddd-'\	.
16a-\	.	.
.	20.dd-'\J)	.
16A-\JJ	.	.
16C\LL	(4dd-^\	.
16G\	.	.
16en\	.	.
16G\	.	.
16g\	8cc\)	.
16G\JJ	.	.
=35	=35	=35
16C\LL	20.b-\ (20.bb-\L	f
16F\	.	.
.	20.cc\ 20.ccc\	.
16d-\	.	.
.	20.b-\ 20.bb-\	.
16F\	.	.
.	20.a-\ 20.aa-\	.
16f\	.	.
.	20.b-\ 20.bb-\J	.
16F\JJ	.	.
16C\LL	4.cc\ 4.ccc\)	.
16G\	.	.
16en\	.	.
16G\	.	.
16g\	.	.
16G\JJ	.	.
=36	=36	=36
16C\LL	(20.b-\L	pp
16F\	.	.
.	20.cc\	.
16d-\	.	.
.	20.b-\	.
16F\	.	.
.	20.a-\	.
16f\	.	.
.	20.b-\J	.
16F\JJ	.	.
16C\LL	4.cc\)	.
16G\	.	.
16en\	.	.
16G\	.	.
16g\	.	.
16G\JJ	.	.
=37	=37	=37
(16FF\LL	8r	.
16C\	.	.
16A-\	(8f'/L	p
16C\	.	.
16B-\	8g'/J)	.
16C\JJ)	.	.
(16FF\LL	8r	.
16C\	.	.
16c\	(8a-'/L	.
16C\	.	.
16d-\	8b-'/J)	.
16C\JJ)	.	.
=38	=38	=38
16FF\LL	8r	.
16C\	.	.
16c\	(8cc'\L	<
16C\	.	.
16B-\	8dd-\J	.
16C\JJ	.	.
16FF\LL	&(8cc'\L&)	.
16C\	.	.
16A-\	8aa-'\	.
16C\	.	.
16B-\	8gg'\J	.
16C\JJ	.	.
=39	=39	=39
16FF\LL	8ff'\L	.
16C\	.	.
16A-\	8cc'\	.
16C\	.	.
16B-\	8dd-\J	.
16C\JJ	.	.
16FF\LL	&(8cc'/L&)	.
16C\	.	.
16A-\	8a-'/	.
16C\	.	.
16c\	8f'/J	.
16C\JJ	.	.
=40	=40	=40
16FF\LL	2.c/)	.
16C\	.	.
16G\	.	.
16C\	.	.
16A-\	.	.
16C\JJ	.	.
16FF\LL	.	.
16C\	.	.
16B-\	.	.
16C\	.	.
16G\	.	.
16C\JJ	.	.
=41	=41	=41
16FF\LL	8r	.
16C\	.	.
16A-\	(8f'/L	.
16C\	.	.
16B-\	8g'/J)	.
16C\JJ	.	.
16FF\LL	8r	.
16C\	.	.
16c\	(8a-'/L	.
16C\	.	.
16d-\	8b-'/J)	.
16C\JJ	.	.
=42	=42	=42
16FF\LL	8r	.
16C\	.	.
16c\	(8cc'\L	<
16C\	.	.
16B-\	8dd-'\J	.
16C\JJ	.	.
16FF\LL	8cc'\L	.
16C\	.	.
16A-\	8ccc'\	.
16C\	.	.
16c\	8aa-'\J	.
16C\JJ	.	.
=43	=43	=43
16FF\LL	8gg'\L	.
16C\	.	.
16B-\	8cc'\	.
16C\	.	.
16G\	8dd-'\J	.
16C\JJ	.	.
16FF\LL	8cc'/L	.
16C\	.	.
16B-\	8g'/	.
16C\	.	.
16G\	8c'/J	.
16C\JJ	.	.
=44	=44	=44
16FF\LL	16f/LL	<
16BBn\	16g/JJ	.
16A-\	2a-/)	.
16BB\	.	.
16d-\	.	.
16BB\JJ	.	.
16FF\LL	.	.
16BB\	.	.
16A-\	.	.
16BB\	.	.
16d-\	8r	.
16BB\JJ	.	.
=45	=45	=45
16FF\LL	8r	.
16C\	.	.
16A-\	8f'\ (8ff'\L	f
16C\	.	.
16B-\	8g'\ 8gg'\J)	.
16C\JJ	.	.
16FF\LL	8r	.
16C\	.	.
16c\	8a-'\ (8aa-'\L	.
16C\	.	.
16d-\	8b-'\ 8bb-'\J)	.
16C\JJ	.	.
=46	=46	=46
16FF\LL	8r	.
16C\	.	.
16c\	8cc'\ (8ccc'\L	<
16C\	.	.
16B-\	8dd-'\ 8ddd-'\J	.
16C\JJ	.	.
16FF\LL	8cc'\ 8ccc'\L	.
16C\	.	.
16A-\	8aa-'\ 8aaa-'\	.
16C\	.	.
16B-\	8gg'\ 8ggg'\J	.
16C\JJ	.	.
=47	=47	=47
16FF\LL	8ff'\ 8fff'\L	.
16C\	.	.
16A-\	8cc'\ 8ccc'\	>
16C\	.	.
16B-\	8dd-'\ 8ddd-'\J	.
16C\JJ	.	.
16FF\LL	8cc'\ 8ccc'\L	.
16C\	.	.
16A-\	8a-'\ 8aa-'\	.
16C\	.	.
16c\	8f'\ 8ff'\J	.
16C\JJ	.	.
=48	=48	=48
16FF\LL	2.c/ 2.cc/)	.
16C\	.	.
16G\	.	.
16C\	.	.
16A-\	.	.
16C\JJ	.	.
16FF\LL	.	.
16C\	.	.
16B-\	.	.
16C\	.	.
16G\	.	.
16C\JJ	.	.
=49	=49	=49
16FF\LL	8r	.
16C\	.	.
16An\	8f'\ (8ff'\L	p
16C\	.	.
16B-\	8g'\ 8gg'\J)	.
16C\JJ	.	.
16FF\LL	8r	.
16C\	.	.
16c\	8an'\ (8aan'\L	.
16C\	.	.
16d-\	8b-'\ 8bb-'\J)	.
16C\JJ	.	.
=50	=50	=50
16FF\LL	8r	.
16G-\	.	.
16e-\	8cc\ (8ccc\L	<
16G-\	.	.
16f\	8dd-\ 8ddd-\J	.
16G-\JJ	.	.
16FF\LL	4.ee-\ 4.eee-\)	.
16G-\	.	.
16g-\	.	.
16G-\	.	.
16g-\	.	.
16G-\JJ	.	.
=51	=51	=51
16FF\LL	8r	.
16Dn\	.	.
16G#\	8bn'\ (8bbn'\L	p
16D\	.	.
16An\	8cc'\ 8ccc'\J)	.
16D\JJ	.	.
16FF\LL	8r	.
16D\	.	.
16Bn\	8ddn'\ (8dddn'\L	.
16D\	.	.
16c#\	8een'\ 8eeen'\J)	.
16D\JJ	.	.
=52	=52	=52
16FF\LL	8r	.
16Dn\	.	.
16dn\	8ff\ (8fff\L	.
16D\	.	.
16en\	8gg\ 8ggg\J	.
16D\JJ	.	.
16FF\LL	4.aa-\ 4.aaa-\)	.
16D\	.	.
16f\	.	.
16D\	.	.
16f\	.	.
16D\JJ	.	.
=53	=53	=53
16FF\LL	8r	.
16D-\	.	.
16B-\	8en\ (8een\L	p
16D-\	.	.
16d-\	8f\ 8ff\J	.
16D-\JJ	.	.
16FF\LL	8a-\ 8aa-\L	.
16D-\	.	.
16B-\	8g\ 8gg\	.
16D-\	.	.
16d-\	8a-\ 8aa-\J	.
16D-\JJ	.	.
=54	=54	=54
16FF\LL	8cc\ 8ccc\L	.
16D-\	.	.
16B-\	8b-\ 8bb-\	.
16D-\	.	.
16d-\	8cc\ 8ccc\J	.
16D-\JJ	.	.
16FF\LL	8ee-\ 8eee-\L	.
16D-\	.	.
16B-\	8dd-\ 8ddd-\	.
16D-\	.	.
16d-\	8ee-\ 8eee-\J	.
16D-\JJ	.	.
=55	=55	=55
16FF\LL	8ff\ 8fff\L	.
16D-\	.	.
16B-\	8een\ 8eeen\	.
16D-\	.	.
16d-\	8ff\ 8fff\J	.
16D-\JJ	.	.
16FF\LL	8a-\ 8aa-\L	<
16D-\	.	.
16B-\	8g\ 8gg\	.
16D-\	.	.
16d-\	8a-\ 8aa-\J)	.
16D-\JJ	.	.
=56	=56	=56
16FF\LL	16an\ (16aan\LL	.
16D-\	16b-\ 16bb-\JJ)	.
16B-\	2dd-^\ 2ddd-^\	.
16D-\	.	.
16d-\	.	.
16D-\JJ	.	.
16FF\LL	.	.
16D-\	.	.
16B-\	.	.
16D-\	.	.
16d-\	8en\ (8een\	p
16D-\JJ	.	.
=57	=57	=57
16FF\LL	8g'\ 8gg'\L	.
16D-\	.	.
16B-\	8g'\ 8gg'\	.
16D-\	.	.
16d-\	8g'\ 8gg'\J)	.
16D-\JJ	.	.
16FF\LL	4g^\ (4gg^\	.
16C\	.	.
16A-\	.	.
16C\	.	.
16c\	8f\ 8ff\)	.
16C\JJ	.	.
=58	=58	=58
16FF\LL	(8g'/L	pp
16D-\	.	.
16B-\	8g'/	.
16D-\	.	.
16d-\	8g'/J)	.
16D-\JJ	.	.
16FF\LL	(4g^/	.
16C\	.	.
16A-\	.	.
16C\	.	.
16c\	8f/)	.
16C\JJ	.	.
=59	=59	=59
16FF\LL	8en'/ (8een'/L	p
16D-\	.	.
16B-\	8d#'/ 8dd#'/	<
16D-\	.	.
16d-\	8e'/ 8ee'/J	.
16D-\JJ	.	.
16FF\LL	4.f\ 4.ff\)	.
16C\	.	.
16A-\	.	.
16C\	.	.
16c\	.	.
16C\JJ	.	.
=60	=60	=60
16FF\LL	(8en/L	pp
16D-\	.	.
16B-\	8d#/	.
16D-\	.	.
16d-\	8e/J	.
16D-\JJ	.	.
16FF\LL	4.f/)	.
16C\	.	.
16A-\	.	.
16C\	.	.
16c\	.	.
16C\JJ	.	.
=61	=61	=61
16FF\LL	20gg'\ 20fff'\LL	f
.	20gg'\ 20fff'\	.
16D-\	.	.
.	20gg'\ 20fff'\	.
16B-\	.	.
.	20gg'\ 20fff'\	.
16D-\	.	.
.	20gg'\ 20fff'\JJ	.
16d-\	16gg'\ 16ggg'\LL	.
16D-\JJ	32r	.
.	32f\ 32gg\JJk	.
16FF\LL	4g^\ 4gg^\	.
16C\	.	.
16A-\	.	.
16C\	.	.
16c\	8ff\	.
16C\JJ	.	.
=62	=62	=62
16FF\LL	20gg'\LL	pp
.	20gg'\	.
16D-\	.	.
.	20gg'\	.
16B-\	.	.
.	20gg'\	.
16D-\	.	.
.	20gg'\JJ	.
16d-\	16gg'\LL	.
16D-\JJ	32r	.
.	32g\JJk	.
16FF\LL	4g^/	.
16C\	.	.
16A-\	.	.
16C\	.	.
16c\	8f/	.
16C\JJ	.	.
=63	=63	=63
16FF\LL	16en'\ (16een'\LL	ff
16D-\	16f'\ 16ff'\	.
16B-\	16g'\ 16gg'\	.
16D-\	16a-'\ 16aa-'\	.
16d-\	16b-'\ 16bb-'\	.
16D-\JJ	16a-'\ 16aa-'\JJ)	.
16FF\LL	4.f\ 4.ff\	.
16C\	.	.
16A-\	.	.
16C\	.	.
16c\	.	.
16C\JJ	.	.
=64	=64	=64
16FF\LL	(16en'/LL	pp
16D-\	16f'/	.
16B-\	16g'/	.
16D-\	16a-'/	.
16d-\	16b-'/	.
16D-\JJ	16a-'/JJ)	.
16FF\LL	4.f/	.
16C\	.	.
16A-\	.	.
16C\	.	.
16c\	.	.
16C\JJ	.	.
=65	=65	=65
8FF/	16bb-\LL	.
.	(16cc\	ppp
8r	16aa-\	.
.	16cc\	.
*clefG2	*	*
(16ddd-\LL	16bb-\	.
16ff\JJ	16cc\JJ	.
16ddd-\LL	16aa-\LL	.
16ff\	16cc\	.
16ddd-\	16bb-\	.
16ff\	16cc\	.
16ddd-\	16aa-\	.
16ff\JJ)	16cc\JJ)	.
=66	=66	=66
(16bb-\LL	(16gg\LL	.
16ff\	16a-\	.
16bb-\	16ff\	.
16ff\	16a-\	.
16bb-\	16gg\	.
16ff\JJ	16a-\JJ	.
16bb-\LL	16ff\LL	.
16ff\	16a-\	.
16bb-\	16gg\	.
16ff\	16a-\	.
16bb-\	16ff\	.
16ff\JJ	16a-\JJ	.
=67	=67	=67
8f'/)	8fff'\)	.
8r	8r	.
8r	8r	.
4r	4r	.
8r	8r	.
==	==	==
*-	*-	*-
!!!ENC: Craig Stuart Sapp
!!!END: 2003/12/24/
